polaris-icons/icons/new-icons/AnalyticsBarStackedMinor.svg

<svg width="20" height="20" viewBox="0 0 20 20" fill="none" xmlns="http://www.w3.org/2000/svg">
<path fill-rule="evenodd" clip-rule="evenodd" d="M5.25 5.75C4.00736 5.75 3 6.75736 3 8V12C3 13.2426 4.00736 14.25 5.25 14.25H14.75C15.9926 14.25 17 13.2426 17 12V8C17 6.75736 15.9926 5.75 14.75 5.75H5.25ZM4.5 8C4.5 7.58579 4.83579 7.25 5.25 7.25H10V12.75H5.25C4.83579 12.75 4.5 12.4142 4.5 12V8ZM13 12.75H14.75C15.1642 12.75 15.5 12.4142 15.5 12V8C15.5 7.58579 15.1642 7.25 14.75 7.25H13V12.75Z" fill="#4A4A4A"/>
</svg>

<svg viewBox="0 0 20 20" xmlns="http://www.w3.org/2000/svg"><path fill-rule="evenodd" d="M5.25 5.75a2.25 2.25 0 0 0-2.25 2.25v4a2.25 2.25 0 0 0 2.25 2.25h9.5a2.25 2.25 0 0 0 2.25-2.25v-4a2.25 2.25 0 0 0-2.25-2.25h-9.5Zm-.75 2.25a.75.75 0 0 1 .75-.75h4.75v5.5h-4.75a.75.75 0 0 1-.75-.75v-4Zm8.5 4.75h1.75a.75.75 0 0 0 .75-.75v-4a.75.75 0 0 0-.75-.75h-1.75v5.5Z" fill="#5C5F62"/></svg>
